X: 40444
T: Tom Puddin's Burrow
R: polka
M: 2/4
K: Gmajor
e>d|cAA B/c/|BG GD|E/F/G AB|cd ed|
cAA B/c/|BG GD|E/F/G AB|1 AE AB|2 A2 A2||
a2 a>f|ge ed|B/c/ d ef|ge fd|
ea ag/f/|ge ed|c/B/A Bc|1 d2 e2|2 d4||

